color/svg/1F370.svg

<svg id="emoji" viewBox="0 0 72 72" xmlns="http://www.w3.org/2000/svg">
  <g id="color">
    <path fill="#fff" d="m57.5367,18.0513l-16.5406,2.5102-2.0738.4311-31.9223,5.0074c-1.1045,0-2,.8965-2,2v12h1c2.7617,0,5-2.2383,5-4.999s2.2383-5.001,5-5.001,5,2.2393,5,5.001,2.2383,4.999,5,4.999,5-2.2383,5-4.999,2.2383-5.001,5-5.001,5,2.2393,5,5.001,2.2383,4.999,5,4.999,5-2.2383,5-4.999,2.2383-5.001,5-5.001,5,2.2393,5,5.001,2.2383,4.999,5,4.999h1v-12c0-4.7112-3.2599-8.6632-7.647-9.7215-.4344-.1048-1.3618-.1812-1.8163-.2272"/>
    <circle cx="49.5" cy="18.0005" r="5" fill="#ea5a47"/>
    <path fill="#fcea2b" d="m67,39v20c0,1.1055-.8955,2-2,2H7c-1.1045,0-2-.8945-2-2v-20"/>
    <path fill="#fcea2b" d="m67,40h-1c-2.7607,0-5-2.2383-5-5s-2.2393-5-5-5-5,2.2383-5,5-2.2393,5-5,5-5-2.2383-5-5-2.2393-5-5-5-5,2.2383-5,5-2.2393,5-5,5-5-2.2383-5-5-2.2393-5-5-5-5,2.2383-5,5-2.2393,5-5,5h-1"/>
  </g>
  <g id="line">
    <path fill="none" stroke="#000" stroke-linecap="round" stroke-linejoin="round" stroke-width="2" d="m67,28v31c0,1.1055-.8955,2-2,2H7c-1.1045,0-2-.8945-2-2v-31c0-1.1035.8955-2,2-2l33.9961-5.4385"/>
    <path fill="none" stroke="#000" stroke-linecap="round" stroke-linejoin="round" stroke-width="2" d="m58.0186,18.0513c5.0439.5102,8.9814,4.771,8.9814,9.9487"/>
    <path fill="none" stroke="#000" stroke-linecap="round" stroke-linejoin="round" stroke-width="2" d="m5,40h1c2.7617,0,5-2.2383,5-4.999s2.2383-5.001,5-5.001,5,2.2393,5,5.001,2.2383,4.999,5,4.999,5-2.2383,5-4.999,2.2383-5.001,5-5.001,5,2.2393,5,5.001,2.2383,4.999,5,4.999,5-2.2383,5-4.999,2.2383-5.001,5-5.001,5,2.2393,5,5.001,2.2383,4.999,5,4.999h1"/>
    <line x1="5" x2="67" y1="48" y2="48" fill="none" stroke="#000" stroke-linecap="round" stroke-linejoin="round" stroke-width="2"/>
    <line x1="5" x2="67" y1="52" y2="52" fill="none" stroke="#000" stroke-linecap="round" stroke-linejoin="round" stroke-width="2"/>
    <circle cx="49.5" cy="18.0005" r="5" fill="none" stroke="#000" stroke-linecap="round" stroke-linejoin="round" stroke-width="2"/>
    <path fill="none" stroke="#000" stroke-linecap="round" stroke-linejoin="round" stroke-width="2" d="m49.5,16c0-5.5229,4.4766-10,10-10"/>
  </g>
</svg>

<svg id="emoji" viewBox="0 0 72 72" xmlns="http://www.w3.org/2000/svg">
  <g id="color">
    <path fill="#FFFFFF" stroke="none" d="M58,17.0567l-17.7512,2.7278l-1.3265,1.2081L7,26c-1.1045,0-2,0.8965-2,2v12h1c2.7617,0,5-2.2383,5-4.999 C11,32.2393,13.2383,30,16,30c2.7617,0,5,2.2393,5,5.001C21,37.7617,23.2383,40,26,40c2.7617,0,5-2.2383,5-4.999 C31,32.2393,33.2383,30,36,30c2.7617,0,5,2.2393,5,5.001C41,37.7617,43.2383,40,46,40c2.7617,0,5-2.2383,5-4.999 C51,32.2393,53.2383,30,56,30c2.7617,0,5,2.2393,5,5.001C61,37.7617,63.2383,40,66,40h1V28c0-4.7112-3.2599-8.6632-7.647-9.7215 c-0.4344-0.1048-0.8799-1.1245-1.3344-1.1705"/>
    <circle cx="49.5" cy="18.0005" r="5" fill="#ea5a47" stroke="none"/>
    <path fill="#fcea2b" stroke="none" d="M67,39v20c0,1.1055-0.8955,2-2,2H7c-1.1045,0-2-0.8945-2-2V39"/>
    <path fill="#fcea2b" stroke="none" d="M67,40h-1c-2.7607,0-5-2.2383-5-5s-2.2393-5-5-5c-2.7607,0-5,2.2383-5,5s-2.2393,5-5,5 c-2.7607,0-5-2.2383-5-5s-2.2393-5-5-5c-2.7607,0-5,2.2383-5,5s-2.2393,5-5,5c-2.7607,0-5-2.2383-5-5s-2.2393-5-5-5 c-2.7607,0-5,2.2383-5,5s-2.2393,5-5,5H5"/>
  </g>
  <g id="hair"/>
  <g id="skin"/>
  <g id="skin-shadow"/>
  <g id="line">
    <path fill="none" stroke="#000000" stroke-linecap="round" stroke-linejoin="round" stroke-miterlimit="10" stroke-width="2" d="M67,28v31c0,1.1055-0.8955,2-2,2H7c-1.1045,0-2-0.8945-2-2V28c0-1.1035,0.8955-2,2-2l33.9961-5.4385"/>
    <path fill="none" stroke="#000000" stroke-linecap="round" stroke-linejoin="round" stroke-miterlimit="10" stroke-width="2" d="M58.0186,18.0513C63.0625,18.5615,67,22.8223,67,28"/>
    <path fill="none" stroke="#000000" stroke-linecap="round" stroke-linejoin="round" stroke-miterlimit="10" stroke-width="2" d="M5,40h1c2.7617,0,5-2.2383,5-4.999C11,32.2393,13.2383,30,16,30c2.7617,0,5,2.2393,5,5.001C21,37.7617,23.2383,40,26,40 c2.7617,0,5-2.2383,5-4.999C31,32.2393,33.2383,30,36,30c2.7617,0,5,2.2393,5,5.001C41,37.7617,43.2383,40,46,40 c2.7617,0,5-2.2383,5-4.999C51,32.2393,53.2383,30,56,30c2.7617,0,5,2.2393,5,5.001C61,37.7617,63.2383,40,66,40h1"/>
    <line x1="5" x2="67" y1="48" y2="48" fill="none" stroke="#000000" stroke-linecap="round" stroke-linejoin="round" stroke-miterlimit="10" stroke-width="2"/>
    <line x1="5" x2="67" y1="52" y2="52" fill="none" stroke="#000000" stroke-linecap="round" stroke-linejoin="round" stroke-miterlimit="10" stroke-width="2"/>
    <circle cx="49.5" cy="18.0005" r="5" fill="none" stroke="#000000" stroke-linecap="round" stroke-linejoin="round" stroke-miterlimit="10" stroke-width="2"/>
    <path fill="none" stroke="#000000" stroke-linecap="round" stroke-linejoin="round" stroke-miterlimit="10" stroke-width="2" d="M49.5,16c0-5.5229,4.4766-10,10-10"/>
  </g>
</svg>
